tde/theme/icons/thermometer.svg

<svg xmlns="http://www.w3.org/2000/svg" width="240" height="240" viewBox="0 0 24 24"><path fill="#fff" d="M17 17a5 5 0 0 1-5 5 5 5 0 0 1-5-5c0-1.64.79-3.09 2-4V5a3 3 0 0 1 3-3 3 3 0 0 1 3 3v8c1.21.91 2 2.36 2 4m-6-9v6.17c-1.17.41-2 1.52-2 2.83a3 3 0 0 0 3 3 3 3 0 0 0 3-3c0-1.31-.83-2.42-2-2.83V8h-2z"/></svg>

<?xml version="1.0" encoding="UTF-8"?><!DOCTYPE svg PUBLIC "-//W3C//DTD SVG 1.1//EN" "http://www.w3.org/Graphics/SVG/1.1/DTD/svg11.dtd"><svg xmlns="http://www.w3.org/2000/svg" xmlns:xlink="http://www.w3.org/1999/xlink" version="1.1" width="240" height="240" viewBox="0 0 24 24"><path fill="#ffffff" d="M17,17A5,5 0 0,1 12,22A5,5 0 0,1 7,17C7,15.36 7.79,13.91 9,13V5A3,3 0 0,1 12,2A3,3 0 0,1 15,5V13C16.21,13.91 17,15.36 17,17M11,8V14.17C9.83,14.58 9,15.69 9,17A3,3 0 0,0 12,20A3,3 0 0,0 15,17C15,15.69 14.17,14.58 13,14.17V8H11Z" /></svg>
